icons/breezeLight/actions/16/document-save.svg

<svg viewBox="0 0 16 16" xmlns="http://www.w3.org/2000/svg"><path d="m2 2v12h1 1 6 1 1 2v-9.71875l-2.28125-2.28125h-.03125-.6875-7-1zm1 1h1 1v3 1h6v-1-3h.28125l1.71875 1.71875v.28125 8h-1v-4h-1-6-1.03125v4h-.96875zm3 0h1.90625v3h-1.90625zm-1 7h1 4 1v3h-1-4-1z" fill="#4d4d4d"/></svg>

<svg xmlns="http://www.w3.org/2000/svg" viewBox="0 0 16 16">
  <defs id="defs3051">
    <style type="text/css" id="current-color-scheme">
      .ColorScheme-Text {
        color:#4d4d4d;
      }
      </style>
  </defs>
 <path style="fill:currentColor;fill-opacity:1;stroke:none" 
     d="M 2 2 L 2 14 L 3 14 L 4 14 L 10 14 L 11 14 L 12 14 L 14 14 L 14 4.28125 L 11.71875 2 L 11.6875 2 L 11 2 L 4 2 L 3 2 L 2 2 z M 3 3 L 4 3 L 5 3 L 5 6 L 5 7 L 11 7 L 11 6 L 11 3 L 11.28125 3 L 13 4.71875 L 13 5 L 13 13 L 12 13 L 12 9 L 11 9 L 5 9 L 3.96875 9 L 3.96875 13 L 3 13 L 3 3 z M 6 3 L 7.90625 3 L 7.90625 6 L 6 6 L 6 3 z M 5 10 L 6 10 L 10 10 L 11 10 L 11 13 L 10 13 L 6 13 L 5 13 L 5 10 z "
     class="ColorScheme-Text"
     />
</svg>
